X: 5594
T: Bussen
R: jig
M: 6/8
K: Amajor
|:Ace|~a3 age|~f3 fed|cAc Bc^d|~e3 Ace|
~a3 age|~f3 fed|cAc BAG|~A3:|
|:B2B|c2c d2d|c2c B2B|c2c dcA|B2E|
BEB cAc|~d3 ~e3|agf edc|BAG ~A3:|

